packages/icons/raw/imported/NotificationsActivity.svg

<svg width="32" height="32" viewBox="0 0 32 32" fill="none" xmlns="http://www.w3.org/2000/svg">
<path d="M25.5 18.1538C25.7761 18.1538 26 18.3777 26 18.6538C26 18.93 25.7761 19.1538 25.5 19.1538L25.5 18.1538ZM6.50001 19.1538C6.22387 19.1538 6.00001 18.93 6.00001 18.6538C6.00001 18.3777 6.22387 18.1538 6.50001 18.1538L6.50001 19.1538ZM19.9696 12.9983L20.4653 13.0643L19.9696 12.9983ZM10.4392 16.9859L10.9322 17.0689L10.4392 16.9859ZM15.2013 22.5767L14.3105 8.88935L15.3084 8.82441L16.1992 22.5118L15.2013 22.5767ZM18.1883 22.579L19.474 12.9322L20.4653 13.0643L19.1796 22.7111L18.1883 22.579ZM21.6315 12.8107L22.6833 17.0176L21.7131 17.2602L20.6614 13.0533L21.6315 12.8107ZM24.1385 18.1538L25.5 18.1538L25.5 19.1538L24.1385 19.1538L24.1385 18.1538ZM12.3265 8.78825L10.9322 17.0689L9.94612 16.9029L11.3404 8.62221L12.3265 8.78825ZM8.46695 19.1538L6.50001 19.1538L6.50001 18.1538L8.46695 18.1538L8.46695 19.1538ZM22.6833 17.0176C22.8502 17.6854 23.4502 18.1538 24.1385 18.1538L24.1385 19.1538C22.9913 19.1538 21.9914 18.3731 21.7131 17.2602L22.6833 17.0176ZM19.474 12.9322C19.6343 11.7298 21.3373 11.6339 21.6315 12.8107L20.6614 13.0533C20.6509 13.0111 20.6349 12.9988 20.627 12.9935C20.6138 12.9846 20.5901 12.9759 20.5588 12.9777C20.5275 12.9795 20.5048 12.9907 20.4927 13.001C20.4854 13.0072 20.471 13.0212 20.4653 13.0643L19.474 12.9322ZM10.9322 17.0689C10.7296 18.2725 9.68747 19.1538 8.46695 19.1538L8.46695 18.1538C9.19926 18.1538 9.82453 17.6251 9.94612 16.9029L10.9322 17.0689ZM16.1992 22.5118C16.2777 23.717 18.0288 23.7761 18.1883 22.579L19.1796 22.7111C18.8605 25.1054 15.3582 24.9872 15.2013 22.5767L16.1992 22.5118ZM14.3105 8.88935C14.2334 7.70474 12.5236 7.61763 12.3265 8.78825L11.3404 8.62221C11.7346 6.28094 15.1542 6.45521 15.3084 8.82441L14.3105 8.88935Z" fill="black"/>
</svg>

<svg width="32" height="32" fill="none" xmlns="http://www.w3.org/2000/svg"><path d="M25.5 18.154a.5.5 0 0 1 0 1v-1Zm-19 1a.5.5 0 1 1 0-1v1Zm13.47-6.156.495.066-.495-.066Zm-9.53 3.988.492.083-.493-.083Zm4.761 5.59-.89-13.687.997-.065.891 13.688-.998.065Zm2.987.003 1.286-9.647.991.132-1.285 9.647-.992-.132Zm3.444-9.768 1.051 4.207-.97.242-1.052-4.207.97-.242Zm2.506 5.343H25.5v1h-1.361v-1ZM12.327 8.788l-1.394 8.28-.986-.165 1.394-8.28.986.165ZM8.467 19.154H6.5v-1h1.967v1Zm14.216-2.136a1.5 1.5 0 0 0 1.456 1.136v1a2.5 2.5 0 0 1-2.426-1.894l.97-.242Zm-3.209-4.086c.16-1.202 1.863-1.298 2.157-.121l-.97.242c-.01-.042-.026-.054-.034-.06a.112.112 0 0 0-.068-.015.114.114 0 0 0-.066.023c-.008.006-.022.02-.028.063l-.991-.132Zm-8.542 4.137a2.5 2.5 0 0 1-2.465 2.085v-1a1.5 1.5 0 0 0 1.48-1.251l.985.166Zm5.267 5.443c.079 1.205 1.83 1.264 1.99.067l.99.132c-.319 2.394-3.82 2.276-3.978-.134l.998-.065ZM14.31 8.889c-.077-1.184-1.786-1.271-1.984-.1l-.986-.167c.395-2.341 3.814-2.167 3.968.202l-.998.065Z" fill="#000"/></svg>
